src/images/funnels-icon.svg

<svg xmlns="http://www.w3.org/2000/svg" width="119" height="119" fill="none" viewBox="0 0 119 119"><rect width="119" height="119" fill="#769FD1" rx="8"/><path fill="#FF8964" fill-rule="evenodd" d="M90.7972 88.6752L100.996 81.7717L100.732 49.5107L90.4033 55.9002L90.7972 88.6752Z" clip-rule="evenodd"/><path fill="#F96132" fill-rule="evenodd" d="M90.4039 55.9424L90.8687 88.6397L19.9556 69.0981L19.906 38.0664L90.4039 55.9424Z" clip-rule="evenodd"/><path fill="#EB9E86" fill-rule="evenodd" d="M100.595 49.6383L90.3447 56.0227L19.8867 38.3493L28.2746 32.0034L100.595 49.6383Z" clip-rule="evenodd"/><path stroke="#35416B" stroke-linecap="round" stroke-linejoin="round" stroke-width=".275" d="M42.4917 44.1226L42.6143 75.0381"/><path stroke="#35416B" stroke-linecap="round" stroke-linejoin="round" stroke-width=".275" d="M66.2612 50.4967L66.3797 81.4086"/><path fill="#F7A501" fill-rule="evenodd" d="M21.8672 43.109L19.8909 44.8676L21.6909 64.7824L42.4819 64.7199L66.1086 67.7694L86.1683 73.1424L88.022 71.3824L66.4611 64.6553L42.6582 55.0667L21.8672 43.109Z" clip-rule="evenodd"/><path fill="#FFD480" fill-rule="evenodd" d="M19.904 44.8138L19.7263 66.4872L40.5173 66.4247L64.144 69.4743C64.144 69.4743 87.1792 73.9585 86.0574 73.0865C84.9357 72.2145 64.498 66.3601 64.498 66.3601L40.695 56.7716L19.904 44.8138Z" clip-rule="evenodd"/></svg>

<svg fill="none" viewBox="0 0 119 119"><rect width="119" height="119" fill="#769FD1" rx="8"/><path fill="#FF8964" fill-rule="evenodd" d="M90.797 88.675l10.199-6.903-.264-32.261-10.329 6.39.394 32.774z" clip-rule="evenodd"/><path fill="#F96132" fill-rule="evenodd" d="M90.404 55.942l.465 32.698-70.913-19.542-.05-31.032 70.498 17.876z" clip-rule="evenodd"/><path fill="#EB9E86" fill-rule="evenodd" d="M100.595 49.638l-10.25 6.385-70.458-17.674 8.388-6.346 72.32 17.635z" clip-rule="evenodd"/><path stroke="#35416B" stroke-linecap="round" stroke-linejoin="round" stroke-width=".275" d="M42.492 44.123l.122 30.915m23.647-24.541l.119 30.912"/><path fill="#F7A501" fill-rule="evenodd" d="M21.867 43.109l-1.976 1.759 1.8 19.914 20.79-.062 23.628 3.05 20.06 5.372 1.853-1.76-21.56-6.727-23.804-9.588-20.79-11.958z" clip-rule="evenodd"/><path fill="#FFD480" fill-rule="evenodd" d="M19.904 44.814l-.178 21.673 20.791-.062 23.627 3.05s23.035 4.484 21.913 3.612c-1.121-.873-21.559-6.727-21.559-6.727l-23.803-9.588-20.791-11.958z" clip-rule="evenodd"/></svg>
